icons/category/icon_category-unknown_m_white.svg

<svg xmlns="http://www.w3.org/2000/svg" width="22" height="22" viewBox="0 0 22 22"><g fill="none" fill-rule="evenodd"><path d="M-1-1h24v24H-1z"/><path fill="#FFF" d="M10.5 14.754c-.781 0-1.297.492-1.297 1.25 0 .75.516 1.242 1.297 1.242.797 0 1.297-.492 1.297-1.242 0-.758-.5-1.25-1.297-1.25zM10.938 5C8.572 5 7.273 6.37 7.209 8.259h1.872c.064-.972.725-1.594 1.753-1.594 1.004 0 1.673.598 1.673 1.426 0 .789-.335 1.211-1.323 1.809-1.1.645-1.562 1.363-1.49 2.558l.009.542h1.849v-.454c0-.789.295-1.195 1.339-1.809 1.084-.645 1.689-1.498 1.689-2.717 0-1.761-1.458-3.02-3.642-3.02z" opacity=".3"/><path fill="#FFF" d="M11 0C4.935 0 0 4.935 0 11s4.935 11 11 11 11-4.935 11-11S17.065 0 11 0zm0 21C5.486 21 1 16.514 1 11S5.486 1 11 1s10 4.486 10 10-4.486 10-10 10z"/></g></svg>

<svg xmlns="http://www.w3.org/2000/svg" width="22" height="22" viewBox="0 0 22 22" fill="none"><rect width="22" height="22" fill="none"/>
<g clip-path="url(#clip0)">
<path fill-rule="evenodd" clip-rule="evenodd" d="M10.5 14.754C9.71898 14.754 9.20298 15.246 9.20298 16.004C9.20298 16.754 9.71898 17.246 10.5 17.246C11.297 17.246 11.797 16.754 11.797 16.004C11.797 15.246 11.297 14.754 10.5 14.754ZM10.938 5C8.57198 5 7.27298 6.37 7.20898 8.259H9.08098C9.14498 7.287 9.80598 6.665 10.834 6.665C11.838 6.665 12.507 7.263 12.507 8.091C12.507 8.88 12.172 9.302 11.184 9.9C10.084 10.545 9.62198 11.263 9.69398 12.458L9.70298 13H11.552V12.546C11.552 11.757 11.847 11.351 12.891 10.737C13.975 10.092 14.58 9.239 14.58 8.02C14.58 6.259 13.122 5 10.938 5Z" fill="white" fill-opacity="0.3"/>
<path fill-rule="evenodd" clip-rule="evenodd" d="M11 0C4.935 0 0 4.935 0 11C0 17.065 4.935 22 11 22C17.065 22 22 17.065 22 11C22 4.935 17.065 0 11 0ZM11 21C5.486 21 1 16.514 1 11C1 5.486 5.486 1 11 1C16.514 1 21 5.486 21 11C21 16.514 16.514 21 11 21Z" fill="white"/>
</g>
<defs>
<clipPath id="clip0">
<path d="M0 0H22V22H0V0Z" fill="white"/>
</clipPath>
</defs>
</svg>
